src/icons/solid/symbols/calendar.svg

<svg width="24" height="24" viewBox="0 0 24 24" fill="none" xmlns="http://www.w3.org/2000/svg">
<g clip-path="url(#clip0_4552_485)">
<path d="M22.9902 20.8721C22.99 21.7214 22.4266 23 20.8613 23H3.12793C2.2787 22.9998 1.00023 22.4371 1 20.8721V10.7207H22.9902V20.8721Z" fill="#3C3B44"/>
<path d="M16.7783 1C17.1979 1 17.5459 1.34804 17.5459 1.76758V3.73242H20.8721L21.0352 3.73926C21.8755 3.80671 22.9999 4.39253 23 5.86035V9.18652H1V5.86035C1.00005 5.00082 1.56293 3.73242 3.13867 3.73242H6.46387V1.76758C6.46387 1.3481 6.81199 1.0001 7.23145 1C7.65098 1 7.99902 1.34804 7.99902 1.76758V3.73242H16.0107V1.76758C16.0107 1.34814 16.3589 1.00016 16.7783 1Z" fill="#3C3B44"/>
</g>
<defs>
<clipPath id="clip0_4552_485">
<rect width="24" height="24" fill="white"/>
</clipPath>
</defs>
</svg>

<svg xmlns="http://www.w3.org/2000/svg" width="24" height="24" fill="none" viewBox="0 0 24 24"><g fill="currentColor" clip-path="url(#a)"><path d="M22.99 20.872c0 .85-.563 2.128-2.129 2.128H3.128C2.278 23 1 22.437 1 20.872V10.721h21.99zM16.778 1c.42 0 .768.348.768.768v1.964h3.326l.163.007c.84.068 1.965.654 1.965 2.121v3.327H1V5.86c0-.86.563-2.128 2.139-2.128h3.325V1.768c0-.42.348-.768.767-.768S8 1.348 8 1.768v1.964h8.012V1.768c0-.42.348-.768.767-.768"/></g><defs><clipPath id="a"><path fill="currentColor" d="M0 0h24v24H0z"/></clipPath></defs></svg>
